X:114
T:La Hollandaise Waltz. RH.114
R:Waltz
S:Rev.R.Harrison’s MS,c1815,Cumbria
N:A saucy little number……..CGP
O:England
A:Temple Sowerby,Cumbria
Z:vmp.Simon Wilson. Review PJH, 2008.
M:3/8
L:1/16
Q:3/8=50
K:D
d’2|\
a2- a>fb>g|e2- e>Aa>f|d>fA>dc>d|(^d2e2) {c’}d’2|!
a2-a>fb>g|e2- e>Aa>f|d>fA>dc>e|d4:|!
|:ab|c’2c’d’ e’2|e’2 d’c’ba|^g2gabg|(a2e2) ab|!
c’2 c’d’ e’2|e’2 d’c’ba|^gabefg|a4:|!
|:gf|egBecA|{e}dcdefg|a2 a2a2|(a2d’) gf|!
egBecA|{e}d>cd>ef>g|a>bc’>d’e’>d’|d’2z2:|

